src/assets/icons/shapes,fancy,outline-star4.svg

<svg width="48" height="48" viewBox="0 0 48 48" fill="none" xmlns="http://www.w3.org/2000/svg">
<path d="M24.4289 5.63309L30.7007 16.0967C30.709 16.1104 30.7179 16.1254 30.7274 16.1414C30.8227 16.3023 30.9805 16.5684 31.206 16.794C31.4316 17.0195 31.6977 17.1773 31.8586 17.2726C31.8746 17.2821 31.8896 17.291 31.9033 17.2993L42.3669 23.5711C42.6446 23.7376 42.8756 23.8761 43.0737 24C42.8756 24.1239 42.6446 24.2624 42.3669 24.4289L31.9033 30.7007C31.8896 30.709 31.8746 30.7179 31.8586 30.7274C31.6977 30.8227 31.4316 30.9805 31.206 31.206C30.9805 31.4316 30.8227 31.6977 30.7274 31.8586C30.7179 31.8746 30.709 31.8896 30.7007 31.9033L24.4289 42.3669C24.2624 42.6446 24.1239 42.8756 24 43.0737C23.8761 42.8756 23.7376 42.6446 23.5711 42.3669L17.2993 31.9033C17.291 31.8896 17.2821 31.8746 17.2726 31.8586C17.1773 31.6977 17.0195 31.4316 16.794 31.206C16.5684 30.9805 16.3023 30.8227 16.1414 30.7274C16.1254 30.7179 16.1104 30.709 16.0967 30.7007L5.63309 24.4289C5.35535 24.2624 5.12444 24.1239 4.92627 24C5.12444 23.8761 5.35535 23.7376 5.63309 23.5711L16.0967 17.2993C16.1104 17.291 16.1254 17.2821 16.1414 17.2726C16.3023 17.1773 16.5684 17.0195 16.794 16.794C17.0195 16.5684 17.1773 16.3023 17.2726 16.1414C17.2821 16.1254 17.291 16.1104 17.2993 16.0967L23.5711 5.63309C23.7376 5.35535 23.8761 5.12444 24 4.92627C24.1239 5.12444 24.2624 5.35535 24.4289 5.63309Z" stroke="black" stroke-width="3"/>
</svg>

<svg xmlns="http://www.w3.org/2000/svg" width="48" height="48" fill="none" viewBox="0 0 48 48">
  <path stroke="#000" stroke-width="3" d="M24.429 5.633L30.7 16.097l.026.044c.096.161.253.427.479.653.226.226.492.383.653.479l.044.026 10.464 6.272c.278.167.509.305.707.429-.198.124-.43.262-.707.429L31.903 30.7l-.044.026c-.161.096-.427.253-.653.479a3.238 3.238 0 00-.479.653l-.026.044-6.272 10.464c-.167.278-.305.509-.429.707-.124-.198-.262-.43-.429-.707L17.3 31.903l-.026-.044a3.238 3.238 0 00-.479-.653 3.238 3.238 0 00-.653-.479l-.044-.026-10.464-6.272A46.583 46.583 0 014.926 24c.198-.124.43-.262.707-.429L16.097 17.3l.044-.026c.161-.096.427-.253.653-.479.226-.226.383-.492.479-.653l.026-.044 6.272-10.464c.167-.278.305-.509.429-.707.124.198.262.43.429.707z"/>
</svg>
